X: 34042
T: Reel De Gaspé
R: reel
M: 4/4
K: Dmajor
f2ef e2d2|FA FA B2A2|g2fg f2e2|BA Bc B2A2|
f2ef e2d2|FA FA B2A2|g2fg f2e2|B2c2d4:|
e2f2g3e|f2g2a4|e2f2g2e2|BA Bc B2A2|e2f2g3e|
f2g2a4|e2f2gfe2|B2c2d4:|
f3f2e2d2|F2A2B2A2|g2fgf2e2|BABc (3BcB A2|f3fe2d2|F2A2B2A2|g2fgf2e2|B2c2d 4:|
c2d2e4|d2e2f4|c2d2e4|BABc (3BcB A2|c2d2e4|d2e2f4|g3fe2d2|B2c2d4:|
FE|DFAF DFA,D|FDAF GEEG|FAdA FAdf|edcB AGFE|
DFAF DFA,D|FDAF GEEG|FAdA FAdf|ecAc d2:|
|:cd|ecAc EAce|fdAd FAdf|gfeg fedf|edcB ABcd|
ecAc EAce|fdAd FAdf|gfeg fedf|ecAc d2:|

